public/build/img/sistema/lista.svg

<svg width="85" height="85" viewBox="0 0 85 85" fill="none" xmlns="http://www.w3.org/2000/svg">
<circle cx="42.5" cy="42.5" r="42.5" fill="#1782FF"/>
<path d="M35 21.334H29.6667C28.2522 21.334 26.8957 21.8959 25.8955 22.8961C24.8953 23.8963 24.3334 25.2528 24.3334 26.6673V58.6673C24.3334 60.0818 24.8953 61.4384 25.8955 62.4386C26.8957 63.4387 28.2522 64.0007 29.6667 64.0007H56.3334C57.7479 64.0007 59.1044 63.4387 60.1046 62.4386C61.1048 61.4384 61.6667 60.0818 61.6667 58.6673V26.6673C61.6667 25.2528 61.1048 23.8963 60.1046 22.8961C59.1044 21.8959 57.7479 21.334 56.3334 21.334H51" stroke="white" stroke-width="4.25" stroke-linecap="round" stroke-linejoin="round"/>
<path d="M45.6667 16H40.3333C37.3878 16 35 18.3878 35 21.3333C35 24.2789 37.3878 26.6667 40.3333 26.6667H45.6667C48.6122 26.6667 51 24.2789 51 21.3333C51 18.3878 48.6122 16 45.6667 16Z" stroke="white" stroke-width="4.25" stroke-linecap="round" stroke-linejoin="round"/>
<path d="M35 40H35.0267" stroke="white" stroke-width="4.25" stroke-linecap="round" stroke-linejoin="round"/>
<path d="M45.6666 40H51" stroke="white" stroke-width="4.25" stroke-linecap="round" stroke-linejoin="round"/>
<path d="M35 50.666H35.0267" stroke="white" stroke-width="4.25" stroke-linecap="round" stroke-linejoin="round"/>
<path d="M45.6666 50.666H51" stroke="white" stroke-width="4.25" stroke-linecap="round" stroke-linejoin="round"/>
</svg>

<svg width="85" height="85" fill="none" xmlns="http://www.w3.org/2000/svg"><circle cx="42.5" cy="42.5" r="42.5" fill="#1782FF"/><path d="M35 21.334h-5.333a5.333 5.333 0 00-5.334 5.333v32a5.333 5.333 0 005.334 5.334h26.666a5.334 5.334 0 005.334-5.334v-32a5.333 5.333 0 00-5.334-5.333H51" stroke="#fff" stroke-width="4.25" stroke-linecap="round" stroke-linejoin="round"/><path d="M45.667 16h-5.334a5.333 5.333 0 000 10.667h5.334a5.333 5.333 0 000-10.667zM35 40h.027m10.64 0H51M35 50.666h.027m10.64 0H51" stroke="#fff" stroke-width="4.25" stroke-linecap="round" stroke-linejoin="round"/></svg>
